src/assets/duotone/GalleryTick.svg

<svg width="24" height="24" viewBox="0 0 24 24"  xmlns="http://www.w3.org/2000/svg">
<path d="M22.0001 13.9001V16.1901C22.0001 19.8301 19.8301 22.0001 16.1901 22.0001H7.81006C5.26006 22.0001 3.42006 20.9301 2.56006 19.0301L2.67006 18.9501L7.59006 15.6501C8.39006 15.1101 9.52006 15.1701 10.2301 15.7901L10.5701 16.0701C11.3501 16.7401 12.6101 16.7401 13.3901 16.0701L17.5501 12.5001C18.3301 11.8301 19.5901 11.8301 20.3701 12.5001L22.0001 13.9001Z" />
<path opacity="0.4" d="M20.97 8H18.03C16.76 8 16 7.24 16 5.97V3.03C16 2.63 16.08 2.29 16.22 2C16.21 2 16.2 2 16.19 2H7.81C4.17 2 2 4.17 2 7.81V16.19C2 17.28 2.19 18.23 2.56 19.03L2.67 18.95L7.59 15.65C8.39 15.11 9.52 15.17 10.23 15.79L10.57 16.07C11.35 16.74 12.61 16.74 13.39 16.07L17.55 12.5C18.33 11.83 19.59 11.83 20.37 12.5L22 13.9V7.81C22 7.8 22 7.79 22 7.78C21.71 7.92 21.37 8 20.97 8Z" />
<path d="M9.00012 10.3801C10.3146 10.3801 11.3801 9.31456 11.3801 8.00012C11.3801 6.68568 10.3146 5.62012 9.00012 5.62012C7.68568 5.62012 6.62012 6.68568 6.62012 8.00012C6.62012 9.31456 7.68568 10.3801 9.00012 10.3801Z" />
<path d="M20.97 1H18.03C16.76 1 16 1.76 16 3.03V5.97C16 7.24 16.76 8 18.03 8H20.97C22.24 8 23 7.24 23 5.97V3.03C23 1.76 22.24 1 20.97 1ZM21.63 3.45L19.26 6.22C19.17 6.33 19.03 6.4 18.89 6.4C18.88 6.4 18.88 6.4 18.87 6.4C18.73 6.4 18.6 6.35 18.5 6.25L17.4 5.17C17.2 4.97 17.2 4.64 17.4 4.44C17.6 4.24 17.93 4.23 18.13 4.44L18.83 5.13L20.83 2.79C21.02 2.57 21.34 2.55 21.56 2.73C21.79 2.91 21.81 3.24 21.63 3.45Z" />
</svg>

<?xml version="1.0" encoding="UTF-8"?>
<svg width="24" height="24" viewBox="0 0 24 24" xmlns="http://www.w3.org/2000/svg">
 <path d="m22 13.9v2.29c0 3.64-2.17 5.81-5.81 5.81h-8.38c-2.55 0-4.39-1.07-5.25-2.97l0.11-0.08 4.92-3.3c0.8-0.54 1.93-0.48 2.64 0.14l0.34 0.28c0.78 0.67 2.04 0.67 2.82 0l4.16-3.57c0.78-0.67 2.04-0.67 2.82 0l1.63 1.4z"/>
 <path d="m20.97 8h-2.94c-1.27 0-2.03-0.76-2.03-2.03v-2.94c0-0.4 0.08-0.74 0.22-1.03h-0.03-8.38c-3.64 0-5.81 2.17-5.81 5.81v8.38c0 1.09 0.19 2.04 0.56 2.84l0.11-0.08 4.92-3.3c0.8-0.54 1.93-0.48 2.64 0.14l0.34 0.28c0.78 0.67 2.04 0.67 2.82 0l4.16-3.57c0.78-0.67 2.04-0.67 2.82 0l1.63 1.4v-6.09-0.03c-0.29 0.14-0.63 0.22-1.03 0.22z" opacity=".4"/>
 <path d="m9.0001 10.38c1.3145 0 2.38-1.0655 2.38-2.38s-1.0655-2.38-2.38-2.38c-1.3144 0-2.38 1.0656-2.38 2.38s1.0656 2.38 2.38 2.38z"/>
 <path d="m20.97 1h-2.94c-1.27 0-2.03 0.76-2.03 2.03v2.94c0 1.27 0.76 2.03 2.03 2.03h2.94c1.27 0 2.03-0.76 2.03-2.03v-2.94c0-1.27-0.76-2.03-2.03-2.03zm0.66 2.45-2.37 2.77c-0.09 0.11-0.23 0.18-0.37 0.18h-0.02c-0.14 0-0.27-0.05-0.37-0.15l-1.1-1.08c-0.2-0.2-0.2-0.53 0-0.73s0.53-0.21 0.73 0l0.7 0.69 2-2.34c0.19-0.22 0.51-0.24 0.73-0.06 0.23 0.18 0.25 0.51 0.07 0.72z"/>
</svg>
